storage/app/icons/phosphoricons/bold/lock-key-bold.svg

<svg xmlns="http://www.w3.org/2000/svg" fill="currentColor" viewBox="0 0 256 256"><path d="M208 76h-28V56a52 52 0 0 0-104 0v20H48a20 20 0 0 0-20 20v112a20 20 0 0 0 20 20h160a20 20 0 0 0 20-20V96a20 20 0 0 0-20-20M100 56a28 28 0 0 1 56 0v20h-56Zm104 148H52V100h152Zm-76-92a32 32 0 0 0-12 61.66V180a12 12 0 0 0 24 0v-6.34A32 32 0 0 0 128 112m0 24a8 8 0 1 1-8 8 8 8 0 0 1 8-8"/></svg>

<svg xmlns="http://www.w3.org/2000/svg" viewBox="0 0 256 256" fill="currentColor"><path d="M208,76H180V56A52,52,0,0,0,76,56V76H48A20,20,0,0,0,28,96V208a20,20,0,0,0,20,20H208a20,20,0,0,0,20-20V96A20,20,0,0,0,208,76ZM100,56a28,28,0,0,1,56,0V76H100ZM204,204H52V100H204Zm-76-92a32,32,0,0,0-12,61.66V180a12,12,0,0,0,24,0v-6.34A32,32,0,0,0,128,112Zm0,24a8,8,0,1,1-8,8A8,8,0,0,1,128,136Z"/></svg>
